_inc/images/systems/logos/arcade.svg

<svg viewBox="0 0 3840 584.4" xmlns="http://www.w3.org/2000/svg">
    <path class="st3" d="M3840 236.8V0h-563.9v584.4H3840V520h-348.9V388.9h122.5V368h-122.5V236.8H3840ZM3331.1 55.1v190.3c0 5.7-4.6 10.4-10.4 10.4-5.8 0-10.4-4.6-10.4-10.4V44.7c0-5.7 4.6-10.4 10.4-10.4h264.4c5.7 0 10.4 4.6 10.4 10.4 0 5.7-4.6 10.4-10.4 10.4h-254Zm-1487.7 85.6c-23-37.8-54.3-70.1-91.8-94.2-47-30.4-101.7-46.5-158.1-46.5-161.1 0-292.2 131.1-292.2 292.2s131.1 292.2 292.2 292.2c56.3 0 111-16.1 158.1-46.4 37.5-24.2 68.8-56.4 91.8-94.2l-319.5-151.5 319.5-151.6Zm-270 224.4c2.4-5.2 8.6-7.4 13.8-4.9l192 91.1c3 1.4 5.1 4.2 5.7 7.4.6 3.2-.3 6.6-2.6 9-14.7 15.8-31.3 29.7-49.3 41.4-1.7 1.1-3.7 1.7-5.6 1.7-3.4 0-6.7-1.7-8.7-4.7-3.1-4.8-1.7-11.2 3.1-14.3 12.6-8.1 24.5-17.5 35.4-27.9l-178.9-84.8c-5.2-2.6-7.4-8.8-4.9-14ZM300.3 32.6 0 584.4h600.6L300.3 32.6Zm0 376.5c-17.3 0-31.3-14-31.3-31.3s14-31.3 31.3-31.3 31.3 14 31.3 31.3-14 31.3-31.3 31.3ZM525.4 550H393.2c-5.7 0-10.4-4.6-10.4-10.4 0-5.7 4.6-10.4 10.4-10.4H508L446.3 416c-2.7-5-.9-11.3 4.1-14 5-2.7 11.3-.9 14 4.1l70 128.6c1.7 3.2 1.7 7.1-.2 10.2-1.8 3.2-5.2 5.1-8.8 5.1ZM2165.7 32.6l-300.3 551.8H2466L2165.7 32.6Zm0 376.5c-17.3 0-31.3-14-31.3-31.3s14-31.3 31.3-31.3 31.3 14 31.3 31.3-14 31.3-31.3 31.3Zm225 140.9h-132.2c-5.7 0-10.4-4.6-10.4-10.4 0-5.7 4.6-10.4 10.4-10.4h114.8L2311.7 416c-2.7-5-.9-11.3 4.1-14 5-2.7 11.3-.9 14 4.1l70 128.6c1.7 3.2 1.7 7.1-.2 10.2-1.8 3.2-5.2 5.1-8.9 5.1ZM2892.2 0h-330.4v584.4h330.4c161.1 0 292.2-131.1 292.2-292.2S3053.3 0 2892.2 0Zm-2.7 405.9c-17.3 0-31.3-14-31.3-31.3s14-31.3 31.3-31.3 31.3 14 31.3 31.3-14 31.3-31.3 31.3Zm189.3 64c-43.5 45.7-101.9 73.8-164.4 79.2h-.9c-5.3 0-9.8-4.1-10.3-9.5-.5-5.7 3.7-10.7 9.4-11.2 119.4-10.2 212.5-108.3 216.5-228.1.2-5.7 4.9-10.2 10.7-10 5.7.2 10.2 5 10 10.7-2.1 63.1-27.3 123.1-71 168.9ZM1022.7 367.6c4.8-10.8 15.5-17.7 27.3-17.7h7.7c96.5 0 174.9-78.5 174.9-174.9 0-96.5-78.5-174.9-174.9-174.9H696.4v584.4h498.8l-167.3-184.7c-7.9-8.8-10-21.4-5.2-32.2Zm35-72.8c59.4 0 110.5-44.3 118.7-103.1.8-5.7 6-9.6 11.7-8.8 5.7.8 9.6 6 8.8 11.7-4.7 33.2-21.2 63.8-46.6 86.1-25.6 22.5-58.5 34.9-92.6 34.9-5.7 0-10.4-4.6-10.4-10.4 0-5.8 4.7-10.4 10.4-10.4ZM976.3 147c17.3 0 31.3 14 31.3 31.3s-14 31.3-31.3 31.3-31.3-14-31.3-31.3 14-31.3 31.3-31.3Zm127.5 396.9c-1.7 3.7-5.4 6.2-9.5 6.2h-132c-5.7 0-10.4-4.6-10.4-10.4 0-5.7 4.6-10.4 10.4-10.4H1071l-83.9-92.6c-5.8-6.3-10.5-13.5-14.1-21.3-2.4-5.2-.1-11.3 5-13.7 5.2-2.4 11.3-.1 13.7 5 2.7 5.9 6.3 11.3 10.7 16.1l99.6 109.9c2.7 3 3.4 7.4 1.8 11.2Z" style="fill:#fff"/>
</svg>

<?xml version="1.0" encoding="utf-8"?>
<svg version="1.1" viewBox="0 0 3840 584.4" xmlns="http://www.w3.org/2000/svg">
  <path class="st3" d="M 3840 236.8 L 3840 0 L 3276.1 0 L 3276.1 584.4 L 3840 584.4 L 3840 520 L 3491.1 520 L 3491.1 388.9 L 3613.6 388.9 L 3613.6 368 L 3491.1 368 L 3491.1 236.8 L 3840 236.8 Z M 3331.1 55.1 L 3331.1 245.4 C 3331.1 251.1 3326.5 255.8 3320.7 255.8 C 3314.9 255.8 3310.3 251.2 3310.3 245.4 L 3310.3 44.7 C 3310.3 39 3314.9 34.3 3320.7 34.3 L 3585.1 34.3 C 3590.8 34.3 3595.5 38.9 3595.5 44.7 C 3595.5 50.4 3590.9 55.1 3585.1 55.1 L 3331.1 55.1 Z" style="fill: rgb(255, 255, 255);"/>
  <path class="st3" d="M 1843.4 140.7 C 1820.4 102.9 1789.1 70.6 1751.6 46.5 C 1704.6 16.1 1649.9 0 1593.5 0 C 1432.4 0 1301.3 131.1 1301.3 292.2 C 1301.3 453.3 1432.4 584.4 1593.5 584.4 C 1649.8 584.4 1704.5 568.3 1751.6 538 C 1789.1 513.8 1820.4 481.6 1843.4 443.8 L 1523.9 292.3 L 1843.4 140.7 Z M 1573.4 365.1 C 1575.8 359.9 1582 357.7 1587.2 360.2 L 1779.2 451.3 C 1782.2 452.7 1784.3 455.5 1784.9 458.7 C 1785.5 461.9 1784.6 465.3 1782.3 467.7 C 1767.6 483.5 1751 497.4 1733 509.1 C 1731.3 510.2 1729.3 510.8 1727.4 510.8 C 1724 510.8 1720.7 509.1 1718.7 506.1 C 1715.6 501.3 1717 494.9 1721.8 491.8 C 1734.4 483.7 1746.3 474.3 1757.2 463.9 L 1578.3 379.1 C 1573.1 376.5 1570.9 370.3 1573.4 365.1 Z" style="fill: rgb(255, 255, 255);"/>
  <path class="st3" d="M 300.3 32.6 L 0 584.4 L 600.6 584.4 L 300.3 32.6 Z M 300.3 409.1 C 283 409.1 269 395.1 269 377.8 C 269 360.5 283 346.5 300.3 346.5 C 317.6 346.5 331.6 360.5 331.6 377.8 C 331.6 395.1 317.6 409.1 300.3 409.1 Z M 525.4 550 L 393.2 550 C 387.5 550 382.8 545.4 382.8 539.6 C 382.8 533.9 387.4 529.2 393.2 529.2 L 508 529.2 L 446.3 416 C 443.6 411 445.4 404.7 450.4 402 C 455.4 399.3 461.7 401.1 464.4 406.1 L 534.4 534.7 C 536.1 537.9 536.1 541.8 534.2 544.9 C 532.4 548.1 529 550 525.4 550 Z" style="fill: rgb(255, 255, 255);"/>
  <path class="st3" d="M 2165.7 32.6 L 1865.4 584.4 L 2466 584.4 L 2165.7 32.6 Z M 2165.7 409.1 C 2148.4 409.1 2134.4 395.1 2134.4 377.8 C 2134.4 360.5 2148.4 346.5 2165.7 346.5 C 2183 346.5 2197 360.5 2197 377.8 C 2197 395.1 2183 409.1 2165.7 409.1 Z M 2390.7 550 L 2258.5 550 C 2252.8 550 2248.1 545.4 2248.1 539.6 C 2248.1 533.9 2252.7 529.2 2258.5 529.2 L 2373.3 529.2 L 2311.7 416 C 2309 411 2310.8 404.7 2315.8 402 C 2320.8 399.3 2327.1 401.1 2329.8 406.1 L 2399.8 534.7 C 2401.5 537.9 2401.5 541.8 2399.6 544.9 C 2397.8 548.1 2394.4 550 2390.7 550 Z" style="fill: rgb(255, 255, 255);"/>
  <path class="st3" d="M 2892.2 0 L 2561.8 0 L 2561.8 584.4 L 2892.2 584.4 C 3053.3 584.4 3184.4 453.3 3184.4 292.2 C 3184.4 131.1 3053.3 0 2892.2 0 Z M 2889.5 405.9 C 2872.2 405.9 2858.2 391.9 2858.2 374.6 C 2858.2 357.3 2872.2 343.3 2889.5 343.3 C 2906.8 343.3 2920.8 357.3 2920.8 374.6 C 2920.8 391.9 2906.8 405.9 2889.5 405.9 Z M 3078.8 469.9 C 3035.3 515.6 2976.9 543.7 2914.4 549.1 C 2914.1 549.1 2913.8 549.1 2913.5 549.1 C 2908.2 549.1 2903.7 545 2903.2 539.6 C 2902.7 533.9 2906.9 528.9 2912.6 528.4 C 3032 518.2 3125.1 420.1 3129.1 300.3 C 3129.3 294.6 3134 290.1 3139.8 290.3 C 3145.5 290.5 3150 295.3 3149.8 301 C 3147.7 364.1 3122.5 424.1 3078.8 469.9 Z" style="fill: rgb(255, 255, 255);"/>
  <path class="st3" d="M 1022.7 367.6 C 1027.5 356.8 1038.2 349.9 1050 349.9 L 1057.7 349.9 C 1154.2 349.9 1232.6 271.4 1232.6 175 C 1232.6 78.5 1154.1 0.1 1057.7 0.1 L 696.4 0.1 L 696.4 584.5 L 1195.2 584.5 L 1027.9 399.8 C 1020 391 1017.9 378.4 1022.7 367.6 Z M 1057.7 294.8 C 1117.1 294.8 1168.2 250.5 1176.4 191.7 C 1177.2 186 1182.4 182.1 1188.1 182.9 C 1193.8 183.7 1197.7 188.9 1196.9 194.6 C 1192.2 227.8 1175.7 258.4 1150.3 280.7 C 1124.7 303.2 1091.8 315.6 1057.7 315.6 C 1052 315.6 1047.3 311 1047.3 305.2 C 1047.3 299.4 1052 294.8 1057.7 294.8 Z M 976.3 147 C 993.6 147 1007.6 161 1007.6 178.3 C 1007.6 195.6 993.6 209.6 976.3 209.6 C 959 209.6 945 195.6 945 178.3 C 945 161 959 147 976.3 147 Z M 1103.8 543.9 C 1102.1 547.6 1098.4 550.1 1094.3 550.1 L 962.3 550.1 C 956.6 550.1 951.9 545.5 951.9 539.7 C 951.9 534 956.5 529.3 962.3 529.3 L 1071 529.3 L 987.1 436.7 C 981.3 430.4 976.6 423.2 973 415.4 C 970.6 410.2 972.9 404.1 978 401.7 C 983.2 399.3 989.3 401.6 991.7 406.7 C 994.4 412.6 998 418 1002.4 422.8 L 1102 532.7 C 1104.7 535.7 1105.4 540.1 1103.8 543.9 Z" style="fill: rgb(255, 255, 255);"/>
</svg>
